assets/icons/qvision/cell_wifi.svg

<svg width="24" height="24" viewBox="0 0 24 24" fill="none" xmlns="http://www.w3.org/2000/svg">
<g clip-path="url(#clip0_147_1777)">
<path d="M18.0001 9.98L6.00005 22H18.0001H22.0001V5.97L18.0001 9.98ZM20.0001 20H18.0001V12.78L20.0001 10.78V20ZM5.22005 7.22L3.93005 5.93C7.83005 2.02 14.1701 2.02 18.0801 5.93L16.7901 7.22C13.6001 4.03 8.41005 4.03 5.22005 7.22ZM12.9301 11.07L11.0001 13L9.07005 11.07C10.1401 10.01 11.8601 10.01 12.9301 11.07ZM14.2201 9.79C12.4401 8.02 9.56005 8.02 7.79005 9.79L6.50005 8.5C8.98005 6.02 13.0201 6.02 15.5001 8.5L14.2201 9.79Z" fill="#323232"/>
</g>
<defs>
<clipPath id="clip0_147_1777">
<rect width="24" height="24" fill="white"/>
</clipPath>
</defs>
</svg>

<svg xmlns="http://www.w3.org/2000/svg" enable-background="new 0 0 24 24" height="24" viewBox="0 0 24 24" width="24"><rect fill="none" height="24" width="24"/><path d="M18,9.98L6,22h12h4V5.97L18,9.98z M20,20h-2v-7.22l2-2V20z M5.22,7.22L3.93,5.93c3.9-3.91,10.24-3.91,14.15,0l-1.29,1.29 C13.6,4.03,8.41,4.03,5.22,7.22z M12.93,11.07L11,13l-1.93-1.93C10.14,10.01,11.86,10.01,12.93,11.07z M14.22,9.79 c-1.78-1.77-4.66-1.77-6.43,0L6.5,8.5c2.48-2.48,6.52-2.48,9,0L14.22,9.79z"/></svg>
